X: 1
T: Yikhes   [E]
R: freilach
Z: 2016 John Chambers <jc:trillian.mit.edu>
S: From Jon Cannon March 2016
L: 1/8
M: 4/4
K: EPhr^G
|:\
"E"G2A2 B2GE | AG- G6 |\
G2A2 BAcB | "Am"A4- AABc |\
"Dm"dB c/B/A BG A/G/F | "E"AG-G2 zEFE |
"E"BABA "Dm"GEFD | "E"E2G2 B2e2 |\
"Dm"dB c/B/A BG A/G/F | "E"AG-G2 zEFE |\
"E"BABA "Dm"GEFD | "E"E8 :|
|:\
"Am"A4 A4 | A2A2 A2E2 |\
"Am"EcBA "E"^GABG | "Am"A4 zEFE |\
"E"G4- GEFE | B8 |
BcBA GABG | "Am"A8 :|\
|:\
"E"EG/G/ GG G2B2 | "Dm"AGFE D4 |\
DFED GAGF |1 "E"E2A2 "Dm"GFED :|2 "E"E8 |]
